!!!OTL: RUHIG IST DES TODES SCHLUMMER
!!!ARE: Europa, Mitteleuropa, Deutschland
!!!SCT: B0775
!!!YEM: Copyright 1995, estate of Helmut Schaffrath.
**kern
*ICvox
*Ivox
*M3/4
*k[b-]
*F:
=1
{2a
4g
=2
4g
4f
4f
=3
2cc
4b-
=4
4b-
4a
4a}
=5
{4ff
4ee
4dd
=6
4cc
4b-
8a
8cc
=7
4cc
4b-
4a
=8
2.g}
=9
{2a
4g
=10
4g
4f
4f
=11
2cc
4b-
=12
4b-
4a
4a}
=13
{4ff
4ee
4dd
=14
4cc
4b-
8a
8cc
=15
4cc
4b-
4a
=16
2.g}
=17
{2g
4a
=18
4b-
4a
4g
=19
2a
4cc
=20
2ff
4r}
=21
{2cc
4ee
=22
4gg
4ee
8cc
8b-
=23
2a
4cc
=24
2ff
4r}
=25
{2dd
4ee
=26
2ff
4b-
=27
2a
4g
=28
2f
4r}
==
!!!AGN: Trost - Lied, Tod, religioes
!!!ONB: ESAC (Essen Associative Code) Database: BOEHME
!!!AMT: simple triple
!!!AIN: vox
!!!EED: Helmut Schaffrath
!!!EEV: 1.0
*-
